!!!OTL: 730. Die Melodie vom Mars-Liede. / VI. Bierlied.
!!!ODT: 1719 (Mel.)
!!!ARE: Europa, Mitteleuropa, Deutschland
!!!SCT: B0730E
!!!TXL: @@DE
!!!YEM: Copyright 1995, estate of Helmut Schaffrath.
**kern	**text
*ICvox	*
*Ivox	*
*clefG2	*
*M4/4	*
*met(c)	*
*k[]	*
*C:	*
=1	=1
!LO:TX:a:t=Bourée. (franʒ Tanʒ.)	!
{8g	Lu-
[16g	-ſtig
16g]	.
8g	ſeid,
8g	ihr
8cc	lie-
8g	-ben
8e	Brüder,
8c	.
=2	=2
8cc	heu-
16bL	-te
16ccJ	.
8dd	ſchmauſen
16ccL	.
16ddJ	.
2ee}	wir!
=3	=3
{8g	La-
[16g	-ben
16g]	.
8g	un-
8g	-fre
8cc	matten
8g	.
8e	Glieder
8c	.
=4	=4
8cc	mit
16bL	dem
16ccJ	.
8dd	Ger-
16ccL	-ſten-
16ddJ	.
2ee}	-bier.
=5	=5
{8ee	Weil
8ee	wir
16eeL	ſo
16ddJ	.
16ccL	bei-
16bJ	.
8a	-ſam-
8a	-men
4a	ſein,
=6	=6
8dd	laßt
8dd	uns,
16ddL	Bra-
16eeJ	.
16ddL	-ve,
16ccJ	.
16bL	lu-
16ccJ	.
16b\L	-ſtig
16aJ	.
8g}	ſein!
{8g	Der
=7	=7
8cc	ed-
8cc	-le
8dd	Ger-
8dd	-ſtenſaft
4ee	.
8b	gibt
8b	uns
=8	=8
1cc}	Kraft.
==	==
!!!AGN: Trink - Lied
!!!GTL: Auslaendische Weisen, die in Deutschland gesungen wurden
!!!ONB: ESAC (Essen Associative Code) Database: BOEHME
!!!AMT: simple quadruple
!!!AIN: vox
!!!EED: Helmut Schaffrath
!!!EEV: 1.0
!!@@COMMENT:"Text und Mel. aus "Muſikaliſche Rüſtkammer auff der Harffe aus allerhand ſchönen
!!und luſtigen Arien, Menuetten, Sarabanden, Giyren und Märſchen beſtehend aus allen Thönen".
!!1719. (Handſchriftl. Sammlung auf der Stadtbl. ʒu Leipʒig: C. F. Beckers Sammlung.
!!Dieſe internationale Melodie, welche hier in 6 Lesarten v. 1619 bis 1719 vorgeführt
!!iſt, tritt ʒuerſt und ʒuletʒt auf deutſchem Boden auf, iſt vermuthlich aber franʒöſiſchen Urſprungs,
!!doch ein franʒöſiſcher Text (außer der Anfangsʒeile) iſt bis jetʒt nicht bekannt. Selbſt der beſte
!!Kenner der franʒ. Muſik, B. Weckerlin. Bibliothekar am Conſervatorium in Paris, bekennt in
!!einem Briefe an Tappert (24. Aug. 1892), daß er die Meldie nur mit dem holl. Tert von 1613
!!ſ. oben III) kenne."
!!@@END:
!!!URL-scan: https://archive.org/details/BoehmeVtLieder1895/page/n581/mode/2up
!!!ENC: Anna Maria Matuszewska
!!!EEV: 2024/18/07
*-	*-
